!!!!SEGMENT: pl-wumfc--n53446--001-023_moniuszko-stanislaw--hrabina-no-19a-recitativo-arja.krn
!!!cenid: 18xx:4110
!!!COM: Moniuszko, Stanisław
!!!COM-rismID: pe30008351
!!!CDT: 1819/05/05-1872/06/04
!!!CNT: Polish
!!!OPR: Hrabina
!!!OTL: No. 19a. Recitativo Arja
!!!OMV: 023
!!!PDT:
!!!AGN: Secular; Opera
!!!YEC: Copyright 2022 Narodowy Instytut Fryderyka Chopina (https://polishscores.org)
!!!YEM: License CC-BY-4.0 (https://creativecommons.org/licenses/by/4.0)
!!!SMS-siglum: PL-Wumfc
!!!SMS-shelfmark: N53446
!!!SMS-shelfwork: 001-023 M
!!!SMS-variant:
!!!SMS-altvar:
!!!NIFC-rismSourceID: 1001165649
!!!NIFC-rismChildID: 1001165649
!!!NIFC-islandoraID: pl-wumfc:6884
!!!URL-pdf-islandora: https://repozytorium.nifc.pl/islandora/object/pl-wumfc%3A6884/datastream/PDF/view
!!!URL-scan: https://polish.musicsources.pl/pl/lokalizacje/galeria/druki-muzyczne/12579 @EN{Scan on Polish Music Sources Website} @PL{Skany w portalu Dziedzictwo Muzyki Polskiej w otwartym dostępie}
!!!IIIF:
!!!ONB-nifc:
!!!AIN: 1 piano
!!!key: G
**kern	**kern	**text	**dynam
*part1	*part1	*	*
*staff2	*staff1	*	*
*I"[Piano.]	*I"[Piano.]	*	*
*Ipiano	*Ipiano	*	*
*ICklav	*ICklav	*	*
*clefF4	*clefG2	*	*
*k[]	*k[]	*	*
*G:	*G:	*	*
*M2/4	*M2/4	*	*
=1	=1	=1	=1
!!LO:TX:B:a:t=Allegro
!	!LO:TX:t=P:problem:cały tekst zapisany ponad pięciolinią	!	!
8cL 8G 8E\	4r	.	pp
8c 8G 8E\	.	.	.
8c 8G 8E\	8.ggL 8.g^\	.	.
8cJ 8G 8E\	.	.	.
.	16ee\Jk	.	.
=2	=2	=2	=2
8cL 8G 8E\	(16cc'\LL	.	.
.	16g'\	.	.
8cJ 8G 8E\	16cc'\	.	.
.	16ee'\JJ)	.	.
8BL 8G 8F\	8ddL 8g'\	.	.
8BJ 8G 8F\	8ffJ 8g'\	.	.
=3	=3	=3	=3
8cL 8G 8E\	8eeL 8g'\	.	.
8c 8G 8E\	8ccJ 8g'\	.	.
8c 8G 8E\	8.eeL 8.g^\	.	.
8cJ 8G 8E\	.	.	.
.	16cc\Jk	.	.
=4	=4	=4	=4
8cL 8G 8E\	(16g'/LL	.	.
.	16e'/	.	.
8cJ 8G 8E\	16g'/	.	.
.	16cc'/JJ)	.	.
8dL 8G 8F\	8bL 8g\	.	.
8BJ 8G 8F\	8ddJ 8g\	.	.
!!LO:LB:g=original
=5	=5	=5	=5
8cL 8G 8E\	4cc 4g/	.	.
8c 8G 8E\	.	.	.
8c 8G 8E\	8.ggL 8.g\	.	.
8cJ 8G 8E\	.	.	.
.	16ee\Jk	.	.
=6	=6	=6	=6
8cL 8G 8E\	16cc\LL	.	.
.	16g\	.	.
8cJ 8G 8E\	16cc\	.	.
.	16ee\JJ	.	.
8BL 8G 8F\	8ddL 8g\	.	.
8BJ 8G 8F\	8ffJ 8g\	.	.
=7	=7	=7	=7
8cL 8G 8E\	8eeL 8g\	.	.
8c 8G 8E\	8ccJ 8g\	.	.
8c 8G 8E\	8.eeL 8.g\	.	.
8cJ 8G 8E\	.	.	.
.	16cc\Jk	.	.
=8	=8	=8	=8
16E\LL	16g/LL	.	.
16G\	16e/	.	.
16E\	16g/	.	.
16C\JJ	16cc/JJ	.	.
8GG/L	8bL 8g 8d/	.	.
8BJ 8G/	8ddJ 8g 8d/	.	.
!!LO:LB:g=original
=9||	=9||	=9||	=9||
*M4/4	*M4/4	*	*
*met(c)	*met(c)	*	*
16GLL 16E 16C\	[4ccc 4ee 4cc\	.	ff
16c\	.	.	.
16G 16E 16C\	.	.	.
16c\JJ	.	.	.
16GLL 16E 16C\	16ccc\LL]	.	.
16c\	16bb\	.	.
16G 16E 16C\	16aa\	.	.
16c\JJ	16gg\JJ	.	.
16FLL 16D 16C\	16ff\LL	.	.
16G\	16ee\	.	.
16F 16D 16C\	16dd\	.	.
16G\JJ	16ee\JJ	.	.
16FLL 16D 16C\	16ff\LL	.	.
16G\	16gg\	.	.
16F 16D 16C\	16aa\	.	.
16G\JJ	16bb\JJ	.	.
=10	=10	=10	=10
16ELL 16C\	16ccc\LL	.	.
16G\	16bb\	.	.
16E 16C\	16ccc\	.	.
16G\JJ	16ddd\JJ	.	.
16ELL 16C\	16ccc\LL	.	.
16G\	16bb\	.	.
16E 16C\	16aa\	.	.
16G\JJ	16gg\JJ	.	.
16FLL 16D 16C\	16ff\LL	.	.
16B\	16ee\	.	.
16F 16D 16C\	16ff\	.	.
16B\JJ	16gg\JJ	.	.
.	8qbb/	.	.
16FLL 16D 16C\	16aa\LL	.	.
16G\	16gg\	.	.
16F 16D 16C\	16aa\	.	.
16G\JJ	16bb\JJ	.	.
!!LO:LB:g=original
=11	=11	=11	=11
8G 8E 8C\	8ccc\	.	.
16cLL 16C\	16eeLL 16cc 16e\	.	.
16cJJ 16C\	16eeJJ 16cc 16e\	.	.
8cL 8C\	8eeL 8cc 8e\	.	.
16BL 16BB\	16ggL 16dd 16g\	.	.
16BJJ 16BB\	16ggJJ 16dd 16g\	.	.
8B 8BB\	8gg 8dd 8g\	.	.
16ALL 16AA\	16cccLL 16ee 16cc\	.	.
16AJJ 16AA\	16cccJJ 16ee 16cc\	.	.
8AL 8AA\	8cccL 8ee 8cc\	.	.
8GJ 8GG\	8dddJ 8bb 8gg 8dd\	.	.
=12	=12	=12	=12
8C 8CC/	8eee 8ccc 8gg 8ee\	.	.
8r	8r	.	.
4r	4r	.	.
2r	8r	.	.
.	8cc\L	Ro-	.
.	8.ee\	-dzin-	.
.	16dd\Jk	-na	.
=13	=13	=13	=13
1r	4.dd\	wio-	.
.	8cc\	-ska	.
.	4cc\	już	.
.	8.b\L	się	.
.	16cc\Jk	u-	.
=14	=14	=14	=14
1r	2cc\	-śmie-	.
.	16g/	-cha,	.
.	16r	.	.
.	8g/	po	.
.	8.a/L	la-	.
.	16b/Jk	-tach	.
!!LO:LB:g=original
=15	=15	=15	=15
1r	4dd\	ty-	.
.	8.cc\L	.	.
.	16dd\Jk	-lu	.
.	4ee\	mat-	.
.	8.dd\L	-kę	.
.	16cc\Jk	zo-	.
=16	=16	=16	=16
8E 8EE/	[4gg 4cc 4g\	-ba-czę!	f
16GLL 16E\	.	.	.
16c\JJ	.	.	.
16GLL 16E\	16gg\LL]	.	.
16c\	16ff\	.	.
16G 16E\	16ee\	.	.
16c\JJ	16dd\JJ	.	.
16GLL 16E\	16cc/LL	.	.
16c\	16b/	.	.
16G 16E\	16a/	.	.
16c\JJ	16g/JJ	.	.
16E\LL	16f/LL	.	.
16G\	16e/	.	.
16E\	16d/	.	.
16G\JJ	[16c/JJ	.	.
=17	=17	=17	=17
8F\	8cc 8a 8f 8c/]	.	.
8r	8r	.	.
4r	(2ff\	Bo-	.
2r	.	.	.
.	8a/)	-że!	.
.	8r;	.	.
!!LO:PB:g=original
=18	=18	=18	=18
1r	8r	.	.
.	8a/L	już	.
.	8a/	te-	.
.	8b-X/J	-raz	.
.	4dd\	pła-	.
.	4cc\	-czę,	.
=19	=19	=19	=19
1r	4cc\	cho-	.
.	8a\L	-ciaż	.
.	8cc\J	to	.
.	4ee-X\	ob-	.
.	8dd\L	-ca,	.
.	8cc\J	są-	.
=20	=20	=20	=20
4r	4dd\	-sied-	.
4F#X\	4a 4d/	-nia	.
8D\	8dd 8f#X/	strzecha.	.
8r	8r	.	.
4r	4r	.	.
*clefG2	*	*	*
=21	=21	=21	=21
*	*^	*	*
!!LO:TX:B:a:t=Moderato.
8g/L	4dd/	8b-X\L	Mat-	.
8g-X/	.	8b-\	.	.
8f/	8dd/L	8b- 8gn\	-ka	.
8e/J	8dd/J	8b-J 8g\	bo-	.
2e/	(4.dd/	8b-L 8g\	-le-	.
.	.	8b- 8g\	.	.
.	.	8b- 8g\	.	.
.	8dd-/)	8b-J 8g\	-je	.
!!LO:LB:g=original
=22	=22	=22	=22	=22
8f/L	4cc/	8a\L	w cięż-	.
8f-X/	.	8a\	.	.
8e-X/	8cc/L	8a 8f\	-kiéj	.
8d/J	8cc/J	8aJ 8f\	za-	.
2d^/	(4.cc/	8a-XL 8f\	-ło-	.
.	.	8a- 8f\	.	.
.	.	8a- 8f\	.	.
.	8cc-X/)	8a-J 8f\	-bie,	.
*clefF4	*	*	*	*
=23	=23	=23	=23	=23
*^	*	*	*	*
8e-X\	2ryy	4b-X/	8g\	nagle,	.
8B-XL 8G\	.	.	8r	.	.
8A 8F#X\	.	8ccn\L	4ryy	żem	.
8A-XJ 8Fn\	.	8dd\J	.	.	.
4B-/	2G 2E-X\	4.ee-X\	2ryy	zgi-	.
4Bn/	.	.	.	.	.
.	.	8ddn\	.	-nął,	.
*	*	*v	*v	*	*
=24	=24	=24	=24	=24
(4c/	2G 2E-X\	8cc\L	wieść	.
.	.	8b-X\	.	.
4c#X/	.	8a\	tu-	.
.	.	8g\J	-taj	.
4d/)	4A 4D\	4f#X/	krą-	.
4r	4ryy	4a/	-ży,	.
*v	*v	*	*	*
!!LO:LB:g=original
=25	=25	=25	=25
1r	4dd\	Za-	.
.	8.a/L	-cny	.
.	16a/Jk	Cho-	.
.	4a/	-rą-	.
.	8f#X/	-ży	.
.	8r	.	.
=26	=26	=26	=26
1r	16r	.	.
.	16a/LL	strzegł	.
.	16a/	jej	.
.	16a/JJ	jak	.
.	8.cc\L	sio-	.
.	16cc\Jk	-stry	.
.	4cc\	w dłu-	.
.	8.b/L	-giej	.
.	16a/Jk	cho-	.
=27	=27	=27	=27
4r	(4cc\	-ro-	.
4G\	8b 8g 8d/)	-bie,	p
.	8r	.	.
8D 8GG/	8gg 8b 8g\	.	.
8r	(8b/L	a	.
4r	8g/	w tych	.
.	8a/J)	sa-	.
=28	=28	=28	=28
*	*^	*	*
(16E\LL	4.b/	16g\LL	-mot-	.
16G\	.	16e\	.	.
16E\	.	16g\	.	.
16G\JJ	.	16e\JJ	.	.
8E\)	.	8g\	.	.
8r	8b/	8r	-nych	.
(16E\LL	4cc/	16g\LL	chwi-	.
16G\	.	16e\	.	.
16E\	.	16g\	.	.
16G\JJ	.	16e\JJ	.	.
8E\)	8cc/L	8g\	-lach	.
8r	8cc/J	8ryy	go-	.
!!LO:LB:g=original
=29	=29	=29	=29	=29
(16E-X\LL	4.cc#X/	16b-X\LL	-ryczy,	.
16G\	.	16g\	.	.
16E-\	.	16b-\	.	.
16G\JJ	.	16g\JJ	.	.
8E-\)	.	8b-\	.	.
8r	8cc#/	8r	gdy	.
(4D\	4dd/	4bn 4g\	.	.
4A 4BB\	(8.dd#X/L	4f#X\	każ-	.
.	16dd#/Jk	.	-da	.
=30	=30	=30	=30	=30
4G 4C\	4.ee/	4e\	łza	.
4d 4G#X\	.	4fn\	.	.
.	8b/	.	jest	.
4A\	4ddn/	4e\	bó-	.
4c 4F#X\	8.cc/L	4d#X\	-lu	.
.	16a/Jk	.	dot-	.
=31	=31	=31	=31	=31
2c 2G\)	4g/)	2e\	-knię-	.
.	4g/	.	-ciem,	.
2G 2Fn 2D 2GG/	8r	2ryy	.	.
.	8g/L	.	po-	.
.	8a/	.	-cie-	.
.	8b/J	.	-szał	.
*	*v	*v	*	*
!!LO:LB:g=original
=32	=32	=32	=32
*^	*	*	*
*ped	*	*	*	*
*cue	*	*	*	*
!!LO:TX:B:a:t=Lento.
!LO:TX:t=P:problem:trudność w koordynacji rytmicznej partii obu rąk w t. 32-33	!	!	!	!
!LO:TX:t=P:problem:mixed beam	!	!	!	!
!LO:N:vis=8	!	!	!	!
(32E/L	2c 2G 2E 2C\	4.cc/	mat-	.
!LO:N:vis=8	!	!	!	!
32G/	.	.	.	.
!LO:N:vis=8	!	!	!	!
32c/	.	.	.	.
!LO:N:vis=8	!	!	!	!
32e>\	.	.	.	.
!LO:N:vis=8	!	!	!	!
32g>\	.	.	.	.
!LO:N:vis=8	!	!	!	!
32cc>\	.	.	.	.
!LO:N:vis=8	!	!	!	!
32ee>\	.	.	.	.
!LO:N:vis=8	!	!	!	!
32gg>\J	.	.	.	.
4ggg>\)	.	.	.	.
.	.	8dd/	-kę	.
!LO:TX:t=P:problem:mixed beam	!	!	!	!
!LO:N:vis=8	!	!	!	!
(32D/LLL	4D\	8cc/L	a-	.
!LO:N:vis=8	!	!	!	!
32G/	.	.	.	.
!LO:N:vis=8	!	!	!	!
32B/	.	.	.	.
!LO:N:vis=8	!	!	!	!
32f/	.	.	.	.
!LO:N:vis=8	!	!	!	!
32g>\	.	8b/	-nioł	.
!LO:N:vis=8	!	!	!	!
32b>\	.	.	.	.
!LO:N:vis=8	!	!	!	!
32dd>\	.	.	.	.
!LO:N:vis=8	!	!	!	!
32gg>\JJJ	.	.	.	.
*Xped	*	*	*	*
4ggg>/)	4ryy	8a/	sło-	.
.	.	8b/J	-dy-	.
*Xcue	*	*	*	*
*v	*v	*	*	*
=33	=33	=33	=33
*	*^	*	*
2G 2C\	4cc/	2e\	-czy.	.
.	4ryy	.	.	.
(8qqC/L	.	.	.	.
8qqE/	.	.	.	.
8qqG/	.	.	.	.
8qqc/	.	.	.	.
8qqe>\	.	.	.	.
8qqg>\	.	.	.	.
8qqcc>\	.	.	.	.
8qqdd>\	.	.	.	.
8qqee>\	.	.	.	.
8qqccc>\	.	.	.	.
8qqddd>\J	.	.	.	.
4qqeee>\)	.	.	.	.
2r	(4ee\	2ryy	Bro-	.
.	8.dd\L)	.	-nia,	.
.	16cc\Jk	.	co	.
=34	=34	=34	=34	=34
2r	4cc\	2ryy	śli-	.
.	8b/L	.	-cznem	.
.	8a/J	.	.	.
2A 2F\	4a/	2d#X\	zna-	.
.	8g#X/L	.	-łem	.
.	8a/J	.	dziew-	.
*	*v	*v	*	*
!!LO:PB:g=original
=35||	=35||	=35||	=35||
*k[f#c#g#d#]	*k[f#c#g#d#]	*	*
*^	*	*	*
!!LO:TX:B:a:t=Andante.
!LO:TX:t=P:problem:mixed beam	!	!	!	!
(16G#/LL	4D#\	8ccn/	-czę-	.
16B/)	.	.	.	.
(16e>\	.	8b/	-ciem.	.
16g#>\JJ)	.	.	.	.
!LO:TX:t=P:problem:mixed beam	!	!	!	!
(16G#/LL	4E\	4ryy	.	.
16B/)	.	.	.	.
(16e>\	.	.	.	.
16g#>\JJ)	.	.	.	.
!LO:TX:t=P:problem:mixed beam	!	!	!	!
(16G#/LL	4E\	4b^>/	O!	.
16B/)	.	.	.	.
(16e>\	.	.	.	.
16g#>\JJ)	.	.	.	.
!LO:TX:t=P:problem:mixed beam	!	!	!	!
(16G#/LL	4E\	8.a/L	zacni	.
16B/)	.	.	.	.
(16e>\	.	.	.	.
16g#>\JJ)	.	16g#/Jk	.	.
=36	=36	=36	=36	=36
!LO:TX:t=P:problem:mixed beam	!	!	!	!
(16G#/LL	4E\	[2ee^>/	ludzie	.
16B/)	.	.	.	.
(16e>\	.	.	.	.
16g#>\JJ)	.	.	.	.
!LO:TX:t=P:problem:mixed beam	!	!	!	!
(16G#/LL	4E\	.	.	.
16B/)	.	.	.	.
(16e>\	.	.	.	.
16g#>\JJ)	.	.	.	.
!LO:TX:t=P:problem:mixed beam	!	!	!	!
(16G#/LL	4E\	8ee/L]	.	.
16B/)	.	.	.	.
(16e>\	.	8dd#/	kiedy	.
16g#>\JJ)	.	.	.	.
!LO:TX:t=P:problem:mixed beam	!	!	!	!
(16G#/LL	4E\	8cc#/	nie-	.
16B/)	.	.	.	.
(16e>\	.	8b/J	.	.
16g#>\JJ)	.	.	.	.
!!LO:LB:g=original
=37	=37	=37	=37	=37
!LO:TX:t=P:problem:mixed beam	!	!	!	!
(16G#/LL	4E\	2gg#/	-dola,	.
16B/)	.	.	.	.
(16e>\	.	.	.	.
16g#>\JJ)	.	.	.	.
!LO:TX:t=P:problem:mixed beam	!	!	!	!
(16G#/LL	4E\	.	.	.
16B/)	.	.	.	.
(16e>\	.	.	.	.
16g#>\JJ)	.	.	.	.
!LO:TX:t=P:problem:mixed beam	!	!	!	!
(16G#/LL	4E\	8ee/L	.	.
16B/)	.	.	.	.
(16e>\	.	8b/	Wy	.
16g#>\JJ)	.	.	.	.
!LO:TX:t=P:problem:mixed beam	!	!	!	!
(16G#/LL	4E\	8.ee/	ją	.
16B/)	.	.	.	.
(16e>\	.	.	.	.
16g#>\JJ)	.	16ff#/Jk	ko-	.
=38	=38	=38	=38	=38
!LO:TX:t=P:problem:mixed beam	!	!	!	!
(16F#/LL	4E\	4ee/	-i-	.
16B/)	.	.	.	.
(16f#>\	.	.	.	.
16a>\JJ)	.	.	.	.
!LO:TX:t=P:problem:mixed beam	!	!	!	!
(16F#/LL	4E\	4dd#/	-li	.
16B/)	.	.	.	.
(16f#>\	.	.	.	.
16a>\JJ)	.	.	.	.
!LO:TX:t=P:problem:mixed beam	!	!	!	!
(16A/LL	4E\	4cc#/	szcze-	.
16B/)	.	.	.	.
(16d#>\	.	.	.	.
16f#>\JJ)	.	.	.	.
!LO:TX:t=P:problem:mixed beam	!	!	!	!
(16A/LL	4E\	8.dd#/L	-rzej	.
16B/)	.	.	.	.
(16d#>\	.	.	.	.
16f#>\JJ)	.	16dd#/Jk	niż	.
!!LO:LB:g=original
=39	=39	=39	=39	=39
*	*	*^	*	*
!LO:TX:t=P:problem:mixed beam	!	!	!	!	!
(16G#/LL	4E\	4b/	4ryy	krew-	.
16B/)	.	.	.	.	.
(16e>\	.	.	.	.	.
16g#>\JJ)	.	.	.	.	.
!LO:TX:t=P:problem:mixed beam	!	!	!	!	!
(16G#/LL	4E\	8b/	8ryy	-ni,	.
16B/)	.	.	.	.	.
(16e>\	.	8ryy	8ryy	.	.
16g#>\JJ)	.	.	.	.	.
(16G#/LL	8E\	8r	8ryy	.	.
16B/JJ)	.	.	.	.	.
8AL 8E 8AA'\	8ryy	8cc#/L	16a\LL	o	.
.	.	.	16e\JJ	.	.
8A 8E 8C#'\	8ryy	8.ee/	16a\LL	mo-	.
.	.	.	16e\	.	.
8AJ 8E 8AA'\	8ryy	.	16a\	.	.
.	.	16cc#/Jk	16e\JJ	-je	.
=40	=40	=40	=40	=40	=40
!LO:TX:t=P:problem:mixed beam	!	!	!	!	!
(16G#/LL	4E\	2b/	2ryy	la-	.
16B/)	.	.	.	.	.
(16e>\	.	.	.	.	.
16g#>\JJ)	.	.	.	.	.
!LO:TX:t=P:problem:mixed beam	!	!	!	!	!
(16G#/LL	4E\	.	.	.	.
16B/)	.	.	.	.	.
(16e>\	.	.	.	.	.
16g#>\JJ)	.	.	.	.	.
(16G#/LL	8E\	8b/	8r	-sy!	.
16B/JJ)	.	.	.	.	.
8F#L 8C# 8FF#/	4.ryy	8a'/L	16f#\LL	o	<
.	.	.	16c#\JJ	.	[[
8F# 8C# 8AA/	.	8.cc#'/	16f#\LL	mo-	.
.	.	.	16c#\	.	>
8F#J 8C# 8FF#/	.	.	16f#\	.	.
.	.	16a'/Jk	16c#\JJ	-je	]
*	*	*v	*v	*	*
!!LO:LB:g=original
=41	=41	=41	=41	=41
!LO:TX:t=P:problem:mixed beam	!	!	!	!
(16E/LL	4C#\	4g#/	po-	.
16G#/)	.	.	.	.
(16c#>\	.	.	.	.
16e>\JJ)	.	.	.	.
!LO:TX:t=P:problem:mixed beam	!	!	!	!
(16G#/LL	4ryy	8g#/	-la!	.
16c#/)	.	.	.	.
(16e>\	.	8rdd	.	.
16g#>\JJ)	.	.	.	.
!LO:TX:t=P:problem:mixed beam	!	!	!	!
(16BB/LL	4AA\	4f# 4d#/	gdy	.
16F#/)	.	.	.	.
(16B>\	.	.	.	.
16f#>\JJ)	.	.	.	.
!LO:TX:t=P:problem:mixed beam	!	!	!	!
(16BB/LL	4AA\	8.g#L 8.d#/	do	.
16F#/)	.	.	.	.
(16B>\	.	.	.	.
16d#>\JJ)	.	16a/Jk	was	.
=42	=42	=42	=42	=42
*	*	*^	*	*
!LO:TX:t=P:problem:mixed beam	!	!	!	!	!
(16E/LL	4AA\	4.b/	4e\	wra-	.
16G#/)	.	.	.	.	.
(16B>\	.	.	.	.	.
16e>\JJ)	.	.	.	.	.
!LO:TX:t=P:problem:mixed beam	!	!	!	!	!
(16E/LL	4ryy	.	8ryy	.	.
16G#/)	.	.	.	.	.
(16B>\	.	8b/	8ryy	-cam,	.
16e>\JJ)	.	.	.	.	.
(16FF#/LL	2ryy	(8bL 8a 8d# 8B/	2ryy	co-	<
16BB/	.	.	.	.	.
16D#/	.	16cc#L 16c#/	.	.	.
16A/JJ)	.	16dd#JJ 16d#/	.	.	.
(16BBB/LL	.	8dd#L 8b 8f# 8d#/	.	-raz	.
16BB/	.	.	.	.	.
16F#/	.	16eeL 16e/	.	.	.
16B/JJ)	.	16ff#JJ 16f#/)	.	mi	[
!!LO:LB:g=original
=43	=43	=43	=43	=43	=43
*ped	*	*	*	*	*
(16BBLL 16EE/	2ryy	(2gg# 2ee/	4..g#\	rzewniéj!	.
16E/	.	.	.	.	.
16G#/	.	.	.	.	.
16B/JJ)	.	.	.	.	.
!LO:TX:t=P:problem:mixed beam	!	!	!	!	!
(16G#/LL	.	.	.	.	.
16B/	.	.	.	.	.
16e/)	.	.	.	.	.
*Xped	*	*	*	*	*
16g#>\JJ	.	.	16ryy	.	.
!LO:TX:t=P:problem:mixed beam	!	!	!	!	!
(16B/LL	2E\	8ff#L 8dd#/	2ryy	.	.
16e/)	.	.	.	.	.
(16g#>\	.	8ee 8cc#/	.	.	.
16b>\JJ)	.	.	.	.	.
!LO:TX:t=P:problem:mixed beam	!	!	!	!	!
(16B/LL	.	8b 8g#/	.	.	.
16e/)	.	.	.	.	.
(16g#>\	.	8cc#/J	.	.	.
16b>\JJ)	.	.	.	.	.
=44	=44	=44	=44	=44	=44
!LO:TX:t=P:problem:mixed beam	!	!	!	!	!
(16F#/LL	4E\	4dd# 4b/)	1ryy	.	.
16B/)	.	.	.	.	.
(16f#>\	.	.	.	.	.
16a>\JJ)	.	.	.	.	.
!LO:TX:t=P:problem:mixed beam	!	!	!	!	!
(16F#/LL	4E\	8.dd#L 8.b/	.	.	.
16B/)	.	.	.	.	.
(16f#>\	.	.	.	.	.
16a>\JJ)	.	16dd#Jk 16b/	.	.	.
!LO:TX:t=P:problem:mixed beam	!	!	!	!	!
(16F#/LL	4E\	4ee 4cc#/	.	.	.
16B/)	.	.	.	.	.
(16f#>\	.	.	.	.	.
16a>\JJ)	.	.	.	.	.
!LO:TX:t=P:problem:mixed beam	!	!	!	!	!
(16F#/LL	4E\	4ff# 4dd#/	.	.	.
16B/)	.	.	.	.	.
(16f#>\	.	.	.	.	.
16a>\JJ)	.	.	.	.	.
!!LO:LB:g=original
=45	=45	=45	=45	=45	=45
!LO:TX:t=P:problem:mixed beam	!	!	!	!	!LO:HP:a
(16B/LL	4G# 4E\	2gg# 2ee\	2ryy	.	<
16e/)	.	.	.	.	.
(16g#>\	.	.	.	.	.
16b>\JJ)	.	.	.	.	.
!LO:TX:t=P:problem:mixed beam	!	!	!	!	!
(16d#/LL	4B#X 4G#\	.	.	.	.
16f#/)	.	.	.	.	[[
(16g#>\	.	.	.	.	.
16b#X>\JJ)	.	.	.	.	.
!	!	!LO:TX:i:b:t=rall.	!	!	!
!	!	!	!	!	!LO:HP:a
8e 8c#\	2ryy	12aaL 12a/	4ryy	.	>
.	.	12gg# 12g#/	.	.	.
8r	.	.	.	.	.
.	.	12ff#J 12f#/	.	.	.
4c# 4A\	.	12ee/L	4f# 4e\	.	.
.	.	12dd#/	.	.	]
.	.	12cc#/J	.	.	.
*	*	*v	*v	*	*
=46	=46	=46	=46	=46
!LO:TX:t=P:problem:mixed beam	!	!	!	!
(16G#/LL	4BB\	4b/	.	.
16B/)	.	.	.	.
(16e>\	.	.	.	.
16g#>\JJ)	.	.	.	.
!LO:TX:t=P:problem:mixed beam	!	!	!	!
(16E/LL	4BB\	8.g#/L	.	.
16G#/)	.	.	.	.
(16B>\	.	.	.	.
16e>\JJ)	.	16e/Jk	.	.
!LO:TX:t=P:problem:mixed beam	!	!	!	!
(16E/LL	4BB\	(4.g#/	.	.
16G#/)	.	.	.	.
(16B>\	.	.	.	.
16e>\JJ)	.	.	.	.
4A 4BB\	4ryy	.	.	.
.	.	8f#/)	.	.
*v	*v	*	*	*
!!LO:PB:g=original
=47	=47	=47	=47
*	*	*	*^
4G#\	(16e/LL	.	.	.
.	16B/	.	.	.
.	16e/	.	.	.
.	16g#/JJ)	.	.	.
!	!	!	!LO:HP:b=di-mi-nu-en-do:ext2=ud	!LO:DY:b=2
8.BBL 8.EE/	(16G#/LL	.	>	p
.	16B/	.	.	.
.	16e/	.	.	.
16BBJk 16EE/	16g#/JJ)	.	.	.
(4BB (4EE/	(16G#/LL	.	.	.
!	!	!	!	!LO:HP:b=2
.	16B/	.	.	>
.	16e/	.	.	.
.	16g#/JJ)	.	.	]]
8E 8AA/))	(16cnLL 16A/	.	.	.
.	16e/	.	.	.
8r	16f#/	.	.	.
.	16a/JJ	.	.	.
=48	=48	=48	=48	=48
4E\	(16G#/LL)	.	.	.
.	16B/	.	.	.
.	16e/	.	.	.
.	16g#/JJ)	.	.	.
!	!	!	!	!LO:DY:b=2
8.BBL 8.EE/	(16G#/LL	.	.	pp
.	16B/	.	.	.
.	16e/	.	.	.
16BBJk 16EE/	16g#/JJ)	.	]	.
!	!	!	!	!LO:HP:b=2
(4BB 4EE/	(16G#/LL	.	.	>
.	16B/	.	.	.
.	16e/	.	.	.
.	16g#/JJ)	.	.	.
4AA/)	(16A/LL	.	.	]
.	16cn/	.	.	.
.	16e/	.	.	.
.	16f#/JJ)	.	.	.
*	*	*	*v	*v
!!LO:LB:g=original
=49||	=49||	=49||	=49||
*k[]	*k[]	*	*
!!LO:TX:B:a:t=un poco più mosso.
8E\	8g#X 8e 8B/	.	.
8r	16e'/LL	.	.
.	16e'/JJ	.	.
4r	8e^/L	.	.
.	16e'/L	.	.
.	16e'/JJ	.	.
2r	8e^/L	.	.
.	16e'/L	.	.
.	16e'/JJ	Cho-	.
.	8e^/L	-rą-	.
.	8f#X/J	-ży	.
=50	=50	=50	=50
*	*^	*	*
(16E\LL	4.g/	16e\LL	pew-	fp
16D#X\	.	16B\	.	.
16E\	.	16e\	.	.
16D#\JJ)	.	16B\JJ	.	.
8E\L	.	16e\LL	.	.
.	.	16B\	.	.
8E\J	8g/	16e\	-nie	.
.	.	16B\JJ	.	.
8E\L	(4a/	16e\LL	po-	.
.	.	16B\	.	.
8E\	.	16e\	.	.
.	.	16B\JJ	.	.
8E\	8g/L)	16e\LL	-szedł	.
.	.	16B\	.	.
8E\J	8a/J	16e\	na	.
.	.	16B\JJ	.	.
=51	=51	=51	=51	=51
8GL 8D\	4cc/	16f\LL	ło-	.
.	.	16d\	.	.
8G 8D\	.	16f\	.	.
.	.	16d\JJ	.	.
8G 8D\	4b/	16f\LL	-wy	.
.	.	16d\	.	.
8GJ 8D\	.	16f\	.	.
.	.	16d\JJ	.	.
8GL 8D\	8r	16f\LL	.	<
.	.	16d\	.	.
8G 8D\	8b/L	16f\	ten-	.
.	.	16d\JJ	.	.
8G 8D\	8b/	16f\LL	-że	.
.	.	16d\	.	.
8GJ 8D\	8cc/J	16f\	sam	.
.	.	16d\JJ	.	.
!!LO:LB:g=original
=52	=52	=52	=52	=52
8GL 8BB\	4dd/	16f\LL	dwo-	.
.	.	16d\	.	.
8G 8BB\	.	16f\	.	.
.	.	16d\JJ	.	.
8G 8BB\	8dd/	16f\LL	-rek	.
.	.	16d\	.	.
8GJ 8BB\	8r	16f\	.	.
.	.	16d\JJ	.	.
8GL 8BB-X\	(4ee/	16r	nic	.
.	.	16g\LL	.	.
8G 8BB-\	.	16cc\	.	.
.	.	16g\JJ	.	.
8G 8BB-\	8dd/L)	16dd\LL	się	.
.	.	16g\	.	.
8GJ 8BB-\	8cc/J	16cc\	nie	.
.	.	16e\JJ	.	.
*	*v	*v	*	*
=53	=53	=53	=53
8AL 8F 8AA\	2ff 2cc 2f\	zmienił,	f >
8C\	.	.	.
8A 8F\	.	.	.
8AJ 8F\	.	.	.
8cL 8A 8F\	8cc 8f/	.	]
8c 8A 8F\	8ccL 8a 8f\	.	.
8c 8A 8F\	8.ff 8.a 8.f^\	.	.
8cJ 8A 8F\	.	.	.
.	16ccJk 16a 16f\	.	.
=54	=54	=54	=54
8cL 8G 8F\	8ccL 8g\	.	.
8c 8G 8F\	8cc\	w o-	.
8c 8G 8F\	8cc\	-gro-	.
8cJ 8G 8F\	8cc\J	-dzie	.
8cL 8G 8E\	4cc 4g/	tyl-	.
8c 8G 8E\	.	.	.
8c 8G 8E\	4cc\	-ko	.
8cJ 8G 8E\	.	.	.
!!LO:LB:g=original
=55	=55	=55	=55
*	*^	*	*
8AL 8D\	8a/L	8gL 8e\	.	.
8A 8D\	8a/	8g 8e\	szpa-	.
8A 8D\	8a/	8f 8d\	-ler	.
8AJ 8D\	8a/J	8eJ 8c#X\	gra-	.
8AL 8D\	8a 8f 8d/	2ryy	-bo-	.
8A 8D\	8aL 8f 8d/	.	.	.
8A 8D\	8.dd 8.f 8.d^/	.	-wy	.
8AJ 8D\	.	.	.	.
.	16aJk 16f 16d/	.	.	.
*	*v	*v	*	*
=56	=56	=56	=56
8AL 8D\	4a 4e/	liść-	.
8A 8D\	.	.	.
8A 8D\	8.aL 8.e/	-mi	.
8AJ 8D\	.	.	.
.	16aJk 16e/	się	.
8AL 8C\	(>4a 4e/	bar-	.
8A 8C\	.	.	.
8A 8C\	8gL 8e/)	-dziej	.
8AJ 8C\	8aJ 8e/	o-	.
=57	=57	=57	=57
*^	*^	*	*
1A 1F#X^	8BB\L	([2b/	2d#X\	-cie-	.
.	8BB\	.	.	.	.
.	8BB\	.	.	.	.
.	8BB\J	.	.	.	.
.	8BB\L	8b/L]	2e 2c\	-nił.	.
.	8BB\	8a/	.	.	.
.	8BB\	8g/	.	.	.
.	8BB\J	8a/J)	.	.	.
!!LO:LB:g=original
=58	=58	=58	=58	=58	=58
1A 1F#X^	8BB\L	((2b/	2d#X 2B\	.	<
.	8BB\	.	.	.	.
.	8BB\	.	.	.	.
.	8BB\J	.	.	.	.
.	8BB\L	8b/L)	2e 2c\	.	.
.	8BB\	8a/	.	.	.
.	8BB\	8g#X/	.	.	.
.	8BB\J	8a/J)	.	.	[
*v	*v	*	*	*	*
=59	=59	=59	=59	=59
8.r	([2ee/	8.r	.	f
16B 16BB\	.	16a 16f#X\	.	.
4B 4BB\	.	4a 4f#\	.	.
2r	8ee/L]	2r	.	.
.	8dd#X/	.	.	.
.	8cc#X/	.	.	.
.	8b/J)	.	.	.
=60	=60	=60	=60	=60
1B 1A 1F#X 1D#X 1BB	(4aa/	8dd#X 8a\	.	sf
!	!LO:TX:b:t=ad lib&colon;	!	!	!
.	.	8r	.	.
.	16aa/LL	4r	.	.
.	16ff#X/	.	.	.
.	16dd#/	.	.	.
.	16b/JJ	.	.	.
.	8.dd#/L)	2ryy	.	.
.	16cc/Jk	.	.	.
.	8.b/L	.	.	.
.	16a/Jk	.	.	.
*	*v	*v	*	*
!!LO:PB:g=original
=61||	=61||	=61||	=61||
*k[f#c#g#d#]	*k[f#c#g#d#]	*	*
*^	*^	*	*
!!LO:TX:B:a:t=a tempo.
!LO:TX:t=P:problem:mixed beam	!	!	!	!	!
(16G#/LL	2E\	4g#/	2ryy	.	.
16B/)	.	.	.	.	.
(16e>\	.	.	.	.	.
16g#>\JJ)	.	.	.	.	.
!LO:TX:t=P:problem:mixed beam	!	!	!	!	!
(16G#/LL	.	4b/	.	.	.
16B/)	.	.	.	.	.
(16e>\	.	.	.	.	.
16g#>\JJ)	.	.	.	.	.
(16G#/LL	8E\	8r	8ryy	.	.
16B/JJ)	.	.	.	.	.
8AL 8E 8AA'\	8ryy	8cc#'/L	(16a\LL	.	.
.	.	.	16e\JJ)	.	.
8A 8E 8C#'\	8ryy	8ee'/	16a\LL	.	.
.	.	.	16e\	.	.
8AJ 8E 8AA'\	8ryy	8cc#'/J	16a\	.	.
.	.	.	16e\JJ	.	.
=62	=62	=62	=62	=62	=62
!LO:TX:t=P:problem:mixed beam	!	!	!	!	!
(16G#/LL	4E\	[2b/	2ryy	.	.
16B/)	.	.	.	.	.
(16e>\	.	.	.	.	.
16g#>\JJ)	.	.	.	.	.
!LO:TX:t=P:problem:mixed beam	!	!	!	!	!
(16G#/LL	4E\	.	.	.	.
16B/)	.	.	.	.	.
(16e>\	.	.	.	.	.
16g#>\JJ)	.	.	.	.	.
(16G#/LL	8E\	8b/]	8r	.	.
16B/JJ)	.	.	.	.	.
8F#L 8C# 8FF#/	8ryy	8a'/L	16f#\LL	.	.
.	.	.	16c#\JJ	.	.
8F# 8C# 8AA/	8ryy	8.cc#'/	16f#\LL	.	.
.	.	.	16c#\	.	.
8F#J 8C# 8FF#/	8ryy	.	16f#\	.	.
.	.	16a'/Jk	16c#\JJ	.	.
*	*	*v	*v	*	*
!!LO:LB:g=original
=63	=63	=63	=63	=63
!LO:TX:t=P:problem:mixed beam	!	!	!	!
(16E/LL	4C#\	4a/	.	.
16G#/)	.	.	.	.
(16c#>\	.	.	.	.
16e>\JJ)	.	.	.	.
!LO:TX:t=P:problem:mixed beam	!	!	!	!
(16G#/LL	4C#\	8g#/	.	.
16c#/)	.	.	.	.
(16e>\	.	8rdd	.	.
16g#>\JJ)	.	.	.	.
!LO:TX:t=P:problem:mixed beam	!	!	!	!
(16BB/LL	4AA\	4f# 4d#/	.	.
16F#/)	.	.	.	.
(16B>\	.	.	.	.
16d#>\JJ)	.	.	.	.
!LO:TX:t=P:problem:mixed beam	!	!	!	!
(16BB/LL	4AA\	8g#L 8d#/	.	.
16F#/)	.	.	.	.
(16B>\	.	8a/J	.	.
16d#>\JJ)	.	.	.	.
=64	=64	=64	=64	=64
*	*	*^	*	*
!LO:TX:t=P:problem:mixed beam	!	!	!	!	!
(16E/LL	4GG#\	4.b/	8e\	.	.
16G#/)	.	.	.	.	.
(16B>\	.	.	8ryy	.	.
16e>\JJ)	.	.	.	.	.
!LO:TX:t=P:problem:mixed beam	!	!	!	!	!
(16E/LL	4GG#\	.	2.ryy	.	.
16G#/)	.	.	.	.	.
(16B>\	.	8b/	.	.	.
16e>\JJ)	.	.	.	.	.
(16FF#/LL	2ryy	(8bL 8a 8d#/	.	.	.
16BB/	.	.	.	.	.
16D#/	.	16cc#/L	.	.	.
16A/JJ)	.	16dd#/JJ	.	.	.
(16BB\LL	.	8dd#L 8b 8a\	.	.	.
16D#\	.	.	.	.	.
16F#\	.	16ee\L	.	.	.
16A\JJ)	.	16ff#\JJ)	.	.	.
*	*	*v	*v	*	*
*v	*v	*	*	*
!!LO:LB:g=original
=65	=65	=65	=65
*	*^	*	*
*ped	*	*	*	*
*	*	*	*	*^
!	!	!	!	!LO:DY:b	!
16BBLL 16EE/	(2gg# 2ee 2b/	4g#\	.	sf	f
16E/	.	.	.	.	.
16G#/	.	.	.	.	.
16B/JJ	.	.	.	.	.
16G#\LL	.	4ryy	.	.	.
16B\	.	.	.	.	.
16e\	.	.	.	.	.
16g#\JJ	.	.	.	.	.
!LO:TX:t=P:problem:mixed beam	!	!	!	!	!
(>16B/LL	8ff#L 8dd#/	2ryy	.	.	.
16e/)	.	.	.	.	.
(16g#>\	8ee 8cc#/	.	.	.	.
16b>\JJ)	.	.	.	.	.
!LO:TX:t=P:problem:mixed beam	!	!	!	!	!
(>16B/LL	8b 8g#/	.	.	.	.
16e/)	.	.	.	.	.
(16g#>\	8cc#/J	.	.	.	.
16b>\JJ)	.	.	.	.	.
*	*	*	*	*v	*v
*	*v	*v	*	*
=66	=66	=66	=66
*^	*	*	*
!LO:TX:t=P:problem:mixed beam	!	!	!	!
(16F#/LL	4E\	4dd# 4b/)	.	.
16B/)	.	.	.	.
(16f#>\	.	.	.	.
16a>\JJ)	.	.	.	.
!LO:TX:t=P:problem:mixed beam	!	!	!	!
(16F#/LL	4E\	8.dd#L 8.b/	.	.
16B/)	.	.	.	.
(16f#>\	.	.	.	.
16a>\JJ)	.	16dd#Jk 16b/	.	.
!LO:TX:t=P:problem:mixed beam	!	!	!	!
(16F#/LL	4E\	4ee 4cc#/	.	.
16B/)	.	.	.	.
(16f#>\	.	.	.	.
16a>\JJ)	.	.	.	.
!LO:TX:t=P:problem:mixed beam	!	!	!	!
(16F#/LL	4E\	4ff# 4dd#/	.	.
16B/)	.	.	.	.
(16f#>\	.	.	.	.
16a>\JJ)	.	.	.	.
!!LO:LB:g=original
=67	=67	=67	=67	=67
*	*	*^	*	*
!LO:TX:t=P:problem:mixed beam	!	!	!	!	!LO:HP:a
(16B/LL	4G# 4E\	2gg#/ 2ee/	2ryy	.	<
16e/)	.	.	.	.	.
(16g#>\	.	.	.	.	.
16b>\JJ)	.	.	.	.	.
!LO:TX:t=P:problem:mixed beam	!	!	!	!	!
(16d#/LL	4B#X 4G#\	.	.	.	.
16f#/)	.	.	.	.	.
(16g#>\	.	.	.	.	[
16b#X>\JJ)	.	.	.	.	.
!	!	!LO:TUP:a:problem:klamra łukowa	!	!	!LO:HP:a
8c#\	2ryy	12aaL 12a/	4ryy	.	>
.	.	12gg# 12g#/	.	.	.
8r	.	.	.	.	.
.	.	12ff#J 12f#/	.	.	.
!	!	!LO:TUP:a:problem:klamra łukowa	!	!	!
4c# 4A\	.	12ee/L	4f# 4e\	.	]
.	.	12dd#/	.	.	.
.	.	12cc#/J	.	.	.
=68	=68	=68	=68	=68	=68
!LO:TX:t=P:problem:mixed beam	!	!	!	!	!
(16G#/LL	4BB\	4b/	2.ryy	.	.
16B/)	.	.	.	.	.
(16e>\	.	.	.	.	.
16g#>\JJ)	.	.	.	.	.
!LO:TX:t=P:problem:mixed beam	!	!	!	!	!
(16E/LL	4BB\	4g#/	.	.	.
16G#/)	.	.	.	.	.
(16B>\	.	.	.	.	.
16e>\JJ)	.	.	.	.	.
!LO:TX:t=P:problem:mixed beam	!	!	!	!	!
(16E/LL	4BB\	(4.g#/	.	.	.
16G#/)	.	.	.	.	.
(16B>\	.	.	.	.	.
16e>\JJ)	.	.	.	.	.
4A 4BB\	4ryy	.	4d# 4B\	.	.
.	.	8f#/)	.	.	.
*	*	*v	*v	*	*
*v	*v	*	*	*
!!LO:LB:g=original
=69	=69	=69	=69
*	*^	*	*^
!	!	!	!	!LO:HP:b:t=di-mi-nu-en-do:ext2=ud	!
4G# 4E\	(16e/LL	2ryy	.	>	.
.	16B/	.	.	.	.
.	16e/	.	.	.	.
.	16g#/JJ)	.	.	.	.
8.BBL 8.EE/	(16G#/LL	.	.	.	.
.	16B/	.	.	.	.
.	16e/	.	.	.	.
16BBJk 16EE/	16g#/JJ)	.	.	.	.
!	!	!	!	!	!LO:HP:b=2
(4BB (4EE/	(16G#/LL	4ryy	.	.	>
.	16B/	.	.	.	.
.	16e/	.	.	.	.
.	16g#/JJ)	.	.	.	.
8E 8AA/))	(16cn/LL	4A\	.	.	]
.	16e/	.	.	.	.
8r	16f#/	.	.	.	.
.	16a/JJ	.	.	.	.
*	*v	*v	*	*	*
=70	=70	=70	=70	=70
4E\	(16G#/LL)	.	.	.
.	16B/	.	.	.
.	16e/	.	.	.
.	16g#/JJ)	.	.	.
!	!	!	!	!LO:DY:b=2
8.BBL 8.EE/	(16G#/LL	.	.	pp
.	16B/	.	.	.
.	16e/	.	.	.
16BBJk 16EE/	16g#/JJ)	.	]]	.
!	!	!	!	!LO:HP:b=2
(4BB (4EE/	(16G#/LL	.	.	>
.	16B/	.	.	.
.	16e/	.	.	.
.	16g#/JJ)	.	.	.
8AA/))	16A/LL	.	.	]
.	16cn/	.	.	.
8r	16e/	.	.	.
.	16f#/JJ	.	.	.
*	*	*	*v	*v
!!LO:PB:g=original
=71||	=71||	=71||	=71||
*k[]	*k[]	*	*
!!LO:TX:B:a:t=Allegro.
8E\	8g#X 8e 8B/	.	p
8r	16e'/LL	.	.
.	16e'/JJ	.	.
4r	8e^/L	.	.
.	16e'/L	.	.
.	16e'/JJ	.	.
2r	8e^/L	.	.
.	16e'/L	.	.
.	16e'/JJ	.	.
.	8e'/L	.	.
.	8e'/J	.	.
=72	=72	=72	=72
1r	8gnL 8e^/	.	.
.	16gL 16e'/	.	.
.	16gJJ 16e'/	.	.
.	8gL 8e^/	.	.
.	16gL 16e'/	.	.
.	16gJJ 16e'/	.	.
.	8gL 8e^/	.	.
.	16gL 16e'/	.	.
.	16gJJ 16e'/	.	.
.	8gL 8e'/	.	.
.	8gJ 8e'/	.	.
=73	=73	=73	=73
*^	*	*	*
16G/LL	2C\	(>4.cc 4.g 4.e/	.	sf
16c/	.	.	.	.
16G/	.	.	.	.
16c/JJ	.	.	.	.
16G/LL	.	.	.	.
16c/	.	.	.	.
16G/	.	8b/)	.	.
16c/JJ	.	.	.	.
16G/LL	2E\	8g'/L	.	.
16B/	.	.	.	.
16G/	.	8e'/	.	.
16B/JJ	.	.	.	.
16G/LL	.	8g'/	.	.
16B/	.	.	.	.
16G/	.	8b'/J	.	.
16B/JJ	.	.	.	.
!!LO:LB:g=original
=74	=74	=74	=74	=74
16G/LL	2C\	(>4.cc 4.g 4.e/	.	sf
16c/	.	.	.	.
16G/	.	.	.	.
16c/JJ	.	.	.	.
16G/LL	.	.	.	.
16c/	.	.	.	.
16G/	.	8b/)	.	.
16c/JJ	.	.	.	.
16G/LL	2E\	8g'/L	.	.
16B/	.	.	.	.
16G/	.	8e'/	.	.
16B/JJ	.	.	.	.
16G/LL	.	8g'/	.	.
16B/	.	.	.	.
16G/	.	8b'/J	.	.
16B/JJ	.	.	.	.
*v	*v	*	*	*
=75	=75	=75	=75
8C'\L	(16ccLL 16g/	.	p
.	16e/	.	.
8G'\	16cc 16g/	.	.
.	16e/JJ	.	.
8E'\	16ccLL 16g/	.	.
.	16e/	.	.
8C'\J	16cc 16g/	.	.
.	16e/JJ)	.	.
8AA'\L	(16ccLL 16f#X/	.	.
.	16e/	.	.
8C'\	16cc 16f#/	.	.
.	16e/JJ	.	.
8E'\	16ccLL 16f#/	.	.
.	16e/	.	.
8A'\J	16cc 16f#/	.	.
.	16e/JJ)	.	.
=76	=76	=76	=76
*	*^	*	*
8BB'\L	4b/	16f#X\LL	.	.
.	.	16d#X\	.	.
8B'\	.	16f#\	.	.
.	.	16d#\JJ	.	.
8A'\	4dd#X/	16b\LL	.	.
.	.	16f#\	.	.
8F#X'\J	.	16b\	.	.
.	.	16f#\JJ	.	.
8D#X'/L	4.ff#X/	16b\LL	.	.
.	.	16f#\	.	.
8BB'/	.	16b\	.	.
.	.	16f#\JJ	.	.
8D#'/	.	16a\LL	.	.
.	.	16f#\	.	.
8BB'/J	8a/	16a\	.	.
.	.	16f#\JJ	.	.
!!LO:LB:g=original
=77	=77	=77	=77	=77
8E'/L	4a/	16a\LL	.	.
.	.	16e\	.	.
8D'/	.	16a\	.	.
.	.	16e\JJ	.	.
8C'/	4g/	16g\LL	.	.
.	.	16e\	.	.
8BB'/J	.	16g\	.	.
.	.	16e\JJ	.	.
8C'/L	4.ee/	16g\LL	.	.
.	.	16e\	.	.
8BB'/	.	16g\	.	.
.	.	16e\JJ	.	.
8AA'/	.	16g\LL	.	.
.	.	16e\	.	.
8GG'/J	8ee/	16g\	.	.
.	.	16e\JJ	.	.
=78	=78	=78	=78	=78
8AA\L	4.ee/	16f#X\LL	.	.
.	.	16e\	.	.
8C\	.	16f#\	.	.
.	.	16e\JJ	.	.
8E\	.	16f#\LL	.	.
.	.	16e\	.	.
8A\J	16cc/LL	16f#\	.	.
.	16a/JJ	16e\JJ	.	.
2BB/	4f#/	16d#X\LL	.	.
.	.	16B\	.	.
.	.	16d#\	.	.
.	.	16B\JJ	.	.
.	4b/	16d#\LL	.	.
.	.	16B\	.	.
.	.	16d#\	.	.
.	.	16B\JJ	.	.
*	*v	*v	*	*
=79	=79	=79	=79
8E\	8g 8e/	.	.
16E\LL	16e/LL	.	.
16G\JJ	16e/JJ	.	.
16E\LL	8e^/L	.	.
16G\	.	.	.
16E\	16e'/L	.	.
16G\JJ	16e'/JJ	.	.
16E\LL	8e^/L	.	.
16G\	.	.	.
16E\	16e'/L	.	.
16G\JJ	16e'/JJ	.	.
16E\LL	8e'/L	.	.
16G\	.	.	.
16E\	8e'/J	.	.
16G\JJ	.	.	.
!!LO:LB:g=original
=80	=80	=80	=80
16E\LL	8gL 8e^/	.	.
16B\	.	.	.
16E\	16gL 16e'/	.	.
16B\JJ	16gJJ 16e'/	.	.
16E\LL	8gL 8e^/	.	.
16B\	.	.	.
16E\	16gL 16e'/	.	.
16B\JJ	16gJJ 16e'/	.	.
16E\LL	8gL 8e^/	.	.
16B\	.	.	.
16E\	16gL 16e'/	.	.
16B\JJ	16gJJ 16e'/	.	.
16E\LL	8gL 8e'/	.	.
16B\	.	.	.
16E\	8gJ 8e'/	.	.
16B\JJ	.	.	.
=81	=81	=81	=81
8E 8EE/	4.cc 4.g 4.e/	.	sf
16E\LL	.	.	.
16G\JJ	.	.	.
16E\LL	.	.	.
16G\	.	.	.
16E\	8b 8g 8e/	.	.
16G\JJ	.	.	.
16E\LL	8gL 8e'/	.	.
16G\	.	.	.
16E\	8e'/	.	.
16G\JJ	.	.	.
16E\LL	8g 8e'/	.	.
16G\	.	.	.
16E\	8bJ 8g 8e'/	.	.
16G\JJ	.	.	.
=82	=82	=82	=82
8E 8EE/	4.dd 4.g 4.e/	.	.
16E\LL	.	.	.
16G\JJ	.	.	.
16E\LL	.	.	.
16G\	.	.	.
16E\	8cc 8g 8e'/	.	.
16G\JJ	.	.	.
16E\LL	4g 4e'/	.	.
16G\	.	.	.
16E\	.	.	.
16G\JJ	.	.	.
16E\LL	8ccL 8g 8e'/	.	.
16G\	.	.	.
16E\	8eeJ 8cc 8g'/	.	.
16G\JJ	.	.	.
!!LO:LB:g=original
=83	=83	=83	=83
*	*^	*	*
8F#X\L	4.ee/	16cc\LL	.	.
.	.	16a\	.	.
8D\	.	16cc\	.	.
.	.	16a\JJ	.	.
8A\	.	16cc\LL	.	.
.	.	16a\	.	.
8F#\J	8dd/	16cc\	.	.
.	.	16a\JJ	.	.
8D/L	4a/	16f#X\LL	.	.
.	.	16d\	.	.
8C/	.	16f#\	.	.
.	.	16d\JJ	.	.
8BB/	8b/L	16g\LL	.	.
.	.	16d\	.	.
8AA/J	8cc/J	16f#\	.	.
.	.	16d\JJ	.	.
=84	=84	=84	=84	=84
8GL 8GG\	4b/	16g\LL	.	.
.	.	16d\	.	.
8F#X'\	.	16g\	.	.
.	.	16B\JJ	.	.
8E'\	4g/	16g\LL	.	.
.	.	16B\	.	.
8D'\J	.	16g\	.	.
.	.	16B\JJ	.	.
(8E/L	4g/	16g\LL	.	.
.	.	16B\	.	<
8D/)	.	16g\	.	.
.	.	16B\JJ	.	.
8BB'/	8b/L	16g\LL	.	.
.	.	16d\	.	.
8GG'/J	8dd/J	16b\	.	.
.	.	16g\JJ	.	[
=85	=85	=85	=85	=85
8G'\L	4.gg/	16b\LL	.	sf
.	.	16g\	.	.
8F'\	.	16b\	.	.
.	.	16g\JJ	.	.
8E'\	.	16b\LL	.	.
.	.	16g\	.	.
8D#X'\J	8b/	16b\	.	.
.	.	16g\JJ	.	.
(8E/L	4cc/	16a\LL	.	.
.	.	16g\	.	.
8Dn/)	.	16a\	.	.
.	.	16g\JJ	.	.
8C'/	4dd/	16b\LL	.	.
.	.	16g\	.	.
8BB'/J	.	16b\	.	.
.	.	16g\JJ	.	.
!!LO:PB:g=original
=86	=86	=86	=86	=86
(8AA\L	2.ee/	16cc\LL	.	.
.	.	16g\	.	.
8E\	.	16cc\	.	.
.	.	16g\JJ	.	.
8c\)	.	16cc\LL	.	.
.	.	16g\	.	.
8B'\J	.	16cc\	.	.
.	.	16g\JJ	.	.
8A'\L	.	16cc\LL	.	.
.	.	16a\	.	.
8G#X'\	.	16cc\	.	.
.	.	16a\JJ	.	.
8A'\	8.ee-X/L	16cc\LL	.	.
.	.	16a\	.	.
8Gn'\J	.	16cc\	.	.
.	16ee-/Jk	16ee-\JJ	.	.
=87	=87	=87	=87	=87
8F#X\L	4.dd/	16cc\LL	.	.
.	.	16a\	.	.
8En\	.	16cc\	.	.
.	.	16a\JJ	.	.
8F#\	.	16cc\LL	.	.
.	.	16a\	.	.
8D\J	16ff#X/LL	16cc\	.	.
.	16ee/JJ	16a\JJ	.	.
8F#\L	4.dd/	16a\LL	.	.
.	.	16d\	.	.
8E\	.	16a\	.	.
.	.	16d\JJ	.	.
8F#\	.	16a\LL	.	.
.	.	16d\	.	.
8D\J	8cc/	16f#X\	.	.
.	.	16d\JJ	.	.
*	*v	*v	*	*
=88	=88	=88	=88
(8G\L	16b\LL	.	.
.	16g\	.	.
8B\	16b\	.	.
.	16g\JJ	.	.
8d\)	16b\LL	.	.
.	16g\	.	.
8c'\J	16b\	.	.
.	16g\JJ	.	.
8B'\L	16b\LL	.	<
.	16g\	.	.
8A#X'\	16b\	.	.
.	16g\JJ	.	.
8B'\	16b\LL	.	.
.	16g\	.	.
8An'\J	16dd\	.	.
.	16g\JJ	.	[[
!!LO:LB:g=original
=89	=89	=89	=89
*	*^	*	*
!!LO:TX:B:a:t=meno mosso.
8G'\L	4.gg/	16b\LL	.	sf
.	.	16g\	.	.
8F'\	.	16b\	.	.
.	.	16g\JJ	.	.
8E'\	.	16b\LL	.	.
.	.	16g\	.	.
8D#X'\J	8b/	16b\	.	.
.	.	16g\JJ	.	.
8E'/L	4cc/	16a\LL	.	.
.	.	16g\	.	.
8Dn'/	.	16a\	.	.
.	.	16g\JJ	.	.
8C'/	4ddn/	16b\LL	.	.
.	.	16g\	.	.
8BB'/J	.	16b\	.	.
.	.	16g\JJ	.	.
=90	=90	=90	=90	=90
8cL 8C\	2ee/	16cc\LL	.	fp
.	.	16g\	.	.
8G\	.	16cc\	.	.
.	.	16g\JJ	.	.
8E\	.	16cc\LL	.	.
.	.	16g\	.	.
8C\J	.	16cc\	.	.
.	.	16g\JJ	.	.
8d-XL 8D-X'\	2ee-X/	16b-X\LL	.	fp
.	.	16g\	.	.
8d- 8D-'\	.	16b-\	.	.
.	.	16g\JJ	.	.
8d- 8D-'\	.	16b-\LL	.	.
.	.	16g\	.	.
8d-J 8D-'\	.	16b-\	.	.
.	.	16g\JJ	.	.
=91	=91	=91	=91	=91
(4A-X 4C\	(4ee-X/	16a-X\LL	.	.
.	.	16e-X\	.	.
.	.	16a-\	.	.
.	.	16e-\JJ	.	.
4B-X 4D-X\	4g/	16g\LL	.	.
.	.	16e-\	.	.
.	.	16g\	.	.
.	.	16e-\JJ	.	.
4Bn 4Dn\	4.bn/	16g\LL	.	.
.	.	16d\	.	.
.	.	16g\	.	.
.	.	16d\JJ	.	.
4D\	.	16f#X\LL	.	.
.	.	16c\	.	.
.	8a-/	16f#\	.	.
.	.	16c\JJ	.	.
*	*v	*v	*	*
!!LO:LB:g=original
=92	=92	=92	=92
!!LO:TX:B:a:t=a tempo
8G\)	8g 8B/)	.	f
16GGLL 16GGG'/	16gLL 16G'/	.	.
16GGJJ 16GGG'/	16gJJ 16G'/	.	.
8GGL 8GGG'/	8gL 8G'/	.	.
8GGJ 8GGG'/	8gJ 8G'/	.	.
8GG 8GGG/	8g 8G/	.	.
8r	8r	.	.
4r	8.g/L	.	pp
.	16g/Jk	.	.
=93	=93	=93	=93
*	*^	*	*
2G 2E-X\	4g/	2e-X 2B-X\	.	.
.	(4g/	.	.	.
2F 2D\	4b-X/)	2f 2B-\	.	.
.	(4b-/	.	.	.
*	*v	*v	*	*
=94	=94	=94	=94
2c 2G 2C\	(>2ee-X [>2g [2e-X/)	.	.
2B-X 2G 2BB-X\	4dd 4g] 4e-/])	.	.
.	8g/L	.	.
.	8g/J	.	.
=95	=95	=95	=95
*	*^	*	*
1A 1AA	4cc/	[2g 2c\	.	.
.	(4cc/	.	.	.
.	4cc#X/)	8g\L]	.	.
.	.	8b-X\	.	.
.	4cc#/	8a\	.	.
.	.	8g\J	.	.
*	*v	*v	*	*
=96	=96	=96	=96
(8D\L	2dd 2f#X/	.	.
8E-X\	.	.	.
8D\	.	.	.
8C#X\J	.	.	.
8D\)	4r	.	.
8r	.	.	.
4r	8b-XL 8g/	.	pp
.	8ccnJ 8a/	.	.
!!LO:LB:g=original
=97	=97	=97	=97
*	*^	*	*
1r	(4dd/	8b-X\L	.	.
.	.	8g\	.	.
.	4ee-X/	8cc\	.	.
.	.	8g\J	.	.
.	4dd/	8b-\L	.	.
.	.	8g\	.	.
.	4cc#X/	8a\	.	.
.	.	8g\J	.	.
=98	=98	=98	=98	=98
1r	2dd/)	8b-X\L	.	.
.	.	8g\	.	.
.	.	8g\	.	.
.	.	8g\J	.	.
.	8g/	8g\	.	.
.	8r	8ryy	.	.
.	(8g/L	8g\L	.	.
.	8a/J	8d\J	.	.
=99	=99	=99	=99	=99
4r	4b-X/	8g\L	.	.
.	.	8g\J	.	.
(4f\	4bn/	8.a-X\L	.	.
.	.	16g\Jk	.	.
4e-X\	4cc/	8.a-\L	.	.
.	.	16g\Jk	.	.
4Bn\	4dd/	8.a-\L	.	.
.	.	16g\Jk	.	.
=100	=100	=100	=100	=100
1c 1C)	2ee-X/)	8a-X\L	.	.
.	.	8e-X\	.	.
.	.	8a-\	.	.
.	.	8cc\J	.	.
.	4.ff/	8r	.	.
.	.	8cc\L	.	.
.	.	8a-\	.	.
.	8ee-/	8e-\J	.	.
!!LO:LB:g=original
=101	=101	=101	=101	=101
1C 1CC	(4cc/	8r	.	.
.	.	8c\L	.	.
.	4e-X/	8e-\	.	.
.	.	8c\J	.	.
.	4.a-X/	8e-\L	.	.
.	.	8c\	.	.
.	.	8e-\	.	.
.	8g/)	8c\J	.	.
=102	=102	=102	=102	=102
1C 1CC	[2f#X/	8e-X\L	.	.
.	.	8A\	.	.
.	.	8e-\	.	.
.	.	8A\J	.	.
.	4f#/]	8e-\L	.	.
.	.	8A\	.	.
.	8g/L	8e-\	.	.
.	8a/J	8A\J	.	.
=103	=103	=103	=103	=103
4C/	(4.cc/	8e-X\L	.	.
.	.	8g\	.	.
4C/	.	8e-\	.	.
.	8b/)	8g\J	.	.
4C#X/	(4b/	8en\L	.	.
.	.	8g\J	.	.
4C#/	8a/L)	4e\	.	.
.	8g/J	.	.	.
=104	=104	=104	=104	=104
*^	*	*	*	*
4A/	4D\	2dd/	8f#X\L	.	.
.	.	.	8d\	.	.
8A\L	4ryy	.	8f#\	.	.
8F#X\J	.	.	8a\J	.	.
8D\	2ryy	8dd\	2ryy	.	.
8r	.	8r	.	.	.
8.Bn\L	.	8.ddL 8.f#/	.	.	pp
16B\Jk	.	16cc#XJk 16e#X/	.	.	.
*v	*v	*	*	*	*
*	*v	*v	*	*
!!LO:LB:g=original
=105	=105	=105	=105
8B\L	(4dd 4f#X/	.	.
8B\	.	.	.
8B\	4b 4d/	.	.
8B\J	.	.	.
8B\L	8dd 8f#/)	.	.
8B\	8r	.	.
8B\	8ddL 8f#\	.	.
8B\J	8eeJ 8g\	.	.
=106	=106	=106	=106
*	*^	*	*
8B\L	2dd 2f#X/	2ryy	.	.
8B\	.	.	.	.
8B\	.	.	.	.
8B\J	.	.	.	.
8B\	4b/	8d\	.	.
8r	.	8r	.	.
4r	8ee/L	4r	.	.
.	8dd/J	.	.	.
=107	=107	=107	=107	=107
2A\	4cc/	8a\L	.	.
.	.	8e\	.	.
.	4a/	8c\	.	.
.	.	8e\J	.	.
!	!	!LO:TX:t=P:problem:mixed beam	!	!
4D\	4.f#X/	8c\L	.	.
.	.	8A</	.	.
4G 4D\	.	8c\	.	.
.	8e/	[8A</J	.	.
=108	=108	=108	=108	=108
1F#X 1D	1d	1A<]	.	.
*	*v	*v	*	*
!!LO:PB:g=original
=109||	=109||	=109||	=109||
*k[f#]	*k[f#]	*	*
*M2/4	*M2/4	*	*
!!LO:TX:B:a:t=Allegro.
8G 8D 8GG/	8d 8B/	.	p
*	*Xtuplet	*	*
8r	(24g/LL	.	.
.	24a/	.	.
.	24g/JJ	.	.
4d 4c 4G\	8f#'/L)	.	.
.	8a'/J	.	.
=110	=110	=110	=110
*^	*	*	*
4d 4B 4G\	4ryy	8g/	.	.
.	.	(24b\LL	.	.
.	.	24cc\	.	.
.	.	24b\JJ	.	.
8dL 8c/	4G\	8a'\L)	.	.
8A/J	.	8cc'\J	.	.
*v	*v	*	*	*
=111	=111	=111	=111
4d 4B 4G\	8b\	.	.
.	(24dd\LL	.	.
.	24ee\	.	.
.	24dd\JJ	.	.
4c#X 4A#X 4G\	8cc#X'\L)	.	.
.	8ee'\J	.	.
=112	=112	=112	=112
8d 8B 8G\	8dd\	.	f
8AnL 8AA'\	8ffnL 8dd 8b 8fn\	.	.
8G#X 8GG#X'\	8ee 8dd 8b 8e\	.	.
8AJ 8AA'\	8ffJ 8dd 8b 8f\	.	.
=113	=113	=113	=113
8G#X 8GG#X/	8ee 8dd 8b 8e/	.	.
16BLL 16G#\	8r	.	p
16d\JJ	.	.	.
16BLL 16G#\	(8.eeeL 8.ee\	.	.
16d\	.	.	.
16B 16G#\	.	.	.
16d\JJ	16ddd#XJk 16dd#X\)	.	.
!!LO:LB:g=original
=114	=114	=114	=114
16BLL 16G#X\	8.ddd#XL 8.dd#X\	.	.
16e\	.	.	.
16B 16G#\	.	.	.
16e\JJ	16dddnJk 16ddn\	.	.
16BLL 16G#\	8.dddL 8.dd\	.	.
16e\	.	.	.
16B 16G#\	.	.	.
16e\JJ	16cccJk 16cc\	.	.
=115	=115	=115	=115
16dLL 16G#X\	8bbL 8b\	.	.
16e\	.	.	.
16d 16G#\	8b\J	.	.
16e\JJ	.	.	.
16BLL 16G#\	8dd\L	.	.
16e\	.	.	.
16d 16G#\	16cc\L	.	.
16e\JJ	16b\JJ	.	.
=116	=116	=116	=116
16cLL 16A\	8a/L	.	.
16e\	.	.	.
16c 16A\	8a/	.	.
16e\JJ	.	.	.
16BLL 16G#X\	8.b/	.	.
16e\	.	.	.
16E\	.	.	.
16G#\JJ	16e/Jk	.	.
=117	=117	=117	=117
8A 8E 8AA\	8cc\	.	fp
8r	(24a/LL	.	.
.	24b/	.	.
.	24a/JJ	.	.
4e 4d 4A\	8g#X/L)	.	.
.	8b'/J	.	.
!!LO:LB:g=original
=118	=118	=118	=118
*^	*	*	*
4e' 4c 4A\	4ryy	8a'/	.	.
.	.	(24cc\LL	.	.
.	.	24dd\	.	.
.	.	24cc\JJ	.	.
8e/L	4d 4A\	8b\L)	.	.
8B/J	.	8dd'\J	.	.
=119	=119	=119	=119	=119
4e 4c 4A\	4ryy	8cc\	.	.
.	.	(24ee\LL	.	.
.	.	24ff#\	.	.
.	.	24ee\JJ	.	.
8f#/L	4c 4A\	8dd#X\L)	.	.
8d#X/J	.	8ff#'\J	.	.
=120	=120	=120	=120	=120
8e 8c/	8A\	8ee'\	.	.
.	.	8qaa/	.	.
8BL 8BB'\	4.ryy	8ggL 8ee 8cc#X 8g'\	.	.
8A#X 8AA#X'\	.	8ff# 8ee 8cc# 8f#'\	.	.
8BJ 8BB'\	.	8ggJ 8ee 8cc# 8g'\	.	.
*v	*v	*	*	*
=121	=121	=121	=121
8A#X 8AA#X\	8ff# 8ee 8cc#X 8f#\	.	.
16c#XLL 16A#\	8r	.	.
16e\JJ	.	.	.
16c#LL 16A#\	8.fff#L 8.ff#\	.	.
16e\	.	.	.
16c# 16A#\	.	.	.
16e\JJ	16eee#XJk 16ee#X\	.	.
=122	=122	=122	=122
16c#XLL 16A#X\	8.eee#XL 8.ee#X^\	.	.
16f#\	.	.	.
16c# 16A#\	.	.	.
16f#\JJ	16eeenJk 16een\	.	.
16c#LL 16A#\	8.eeeL 8.ee^\	.	.
16f#\	.	.	.
16c# 16A#\	.	.	.
16f#\JJ	16dddJk 16dd\	.	.
!!LO:LB:g=original
=123	=123	=123	=123
16c#XLL 16A#X\	(8dddL 8dd\	.	.
16f#\	.	.	.
16c# 16A#\	8ccc#XJ 8cc#X\)	.	.
16f#\JJ	.	.	.
16c#LL 16A#\	8ee\L	.	.
16f#\	.	.	.
16c# 16A#\	16dd\L	.	.
16f#\JJ	16cc#\JJ	.	.
=124	=124	=124	=124
16dLL 16B\	8b/L	.	.
16f#\	.	.	.
16d 16B\	8f#/	.	.
16f#\JJ	.	.	.
16c#XLL 16A#X\	8.cc#X/	.	.
16f#\	.	.	.
16F#\	.	.	.
16A#\JJ	16f#/Jk	.	.
=125	=125	=125	=125
16B\LL	8dd\	.	.
16d\	.	.	.
16B\	16ddLL 16b 16f#'/	.	.
16d\JJ	16ddJJ 16b 16f#'/	.	.
16B\LL	8ddL 8b 8f#'/	.	.
16d\	.	.	.
16B\	8ddJ 8b 8f#'/	.	.
16d\JJ	.	.	.
=126	=126	=126	=126
16B\LL	8ddL 8b 8f#'/	.	.
16d\	.	.	.
16B\	8dd 8b 8f#'/	.	.
16d\JJ	.	.	.
16B\LL	8cc#X 8b 8f#'/	.	.
16d\	.	.	.
16B\	8ddJ 8b 8f#'/	.	.
16d\JJ	.	.	.
!!LO:LB:g=original
=127	=127	=127	=127
*	*^	*	*
!	!	!	!	!LO:HP:b:cre-scen-do:ext2=ud
16B\LL	8ff#/	8cc#X 8f#\	.	<
16c#X\	.	.	.	.
16B\	16cc#LL 16f#\	8ryy	.	.
16c#\JJ	16cc#JJ 16f#\	.	.	.
16A#X\LL	8cc# 8f#\	8ryy	.	.
16c#\	.	.	.	.
16A#\	8ff#/	8cc#\	.	.
16c#\JJ	.	.	.	.
=128	=128	=128	=128	=128
16A#X\LL	8gg/L	8dd#XL 8ccn\	.	.
16cn\	.	.	.	.
16A#\	8ff#/	8dd# 8cc\	.	.
16c\JJ	.	.	.	.
16A#\LL	8ee#X/	8dd# 8cc\	.	.
16c\	.	.	.	.
16A#\	8ff#/J	8dd#J 8cc\	.	.
16c\JJ	.	.	.	.
*	*v	*v	*	*
=129	=129	=129	=129
(16A\LL	8bbL 8ee 8b\	.	.
16B\	.	.	.
16A\	16eeL 16b\	.	.
16B\JJ	16eeJJ 16b\	.	.
16G#X\LL	8eeL 8b\	.	.
16B\	.	.	.
16G#\	8bbJ 8b'\	.	.
16B\JJ)	.	.	.
=130	=130	=130	=130
16G\LL	8ccc#XL 8cc#X'\	.	.
16e\	.	.	.
16B 16G\	8bb 8b'\	.	.
16e\JJ	.	.	.
16BLL 16G\	8aa#X 8a#X'\	.	.
16e\	.	.	.
16B 16G\	8bbJ 8b'\	.	[[
16e\JJ	.	.	.
=131	=131	=131	=131
16BLL 16F#\	8ddd 8dd\	.	.
16d\	.	.	.
16B 16F#\	16ddLL 16b'\	.	.
16d\JJ	16ddJJ 16b'\	.	.
8BL 8F#\	8ddL 8b'\	.	.
8cnJ 8A 8D\	8dddJ 8dd\	.	ff
!!LO:LB:g=original
=132	=132	=132	=132
8cL 8A 8D\	8ddd#XL 8ccc 8aa 8dd#X'\	.	.
8c 8A 8D\	8eeeJ 8ccc 8aa 8ee'\	.	.
8c 8A 8D\	8fffnL 8ccc 8aa 8ffn'\	.	.
8cJ 8A 8D\	8fff#XJ 8ccc 8aa 8ff#X'\	.	.
=133	=133	=133	=133
16BLL 16G\	16gggLL 16ddd 16bb 16gg\	.	.
16D\	16dd\	.	.
16G\	16gg\	.	.
16B\JJ	16bb\JJ	.	.
8d\	8ddd\	.	.
8r;	8r;	.	.
=134	=134	=134	=134
!!LO:TX:B:a:t=Lento.
2r	(4.dd\	.	.
.	8cc\	.	.
=135	=135	=135	=135
*	*^	*	*
(2BB 2BBB/	4b/	2g 2d\	.	.
.	4a/	.	.	.
=136	=136	=136	=136	=136
2G 2BB\	4.g/	2d\	.	.
.	8f#/)	.	.	.
*	*v	*v	*	*
=137	=137	=137	=137
4G 4C\)	(4f#/	.	.
4r	8e/)	.	.
.	8r	.	.
=138	=138	=138	=138
2r	4.ff#^\	.	.
.	8ee\	.	.
!!LO:PB:g=original
=139	=139	=139	=139
*	*^	*	*
2G#X 2C\	(4dd/	2e\	.	.
.	4cc/	.	.	.
=140	=140	=140	=140	=140
2A 2C\	4b/	2e\	.	.
.	4a/)	.	.	.
*	*v	*v	*	*
=141	=141	=141	=141
[2c\	2g 2e-X^>/	.	.
=142	=142	=142	=142
!	!LO:TX:i:a:t=accelerando	!	!
8c\]	8f# 8d/	.	.
8r	8r	.	.
4r	8f#/L	.	.
.	8g/J	.	.
=143	=143	=143	=143
*	*^	*	*
8d 8c\	4a/	8f#\	.	.
8r	.	8r	.	.
4r	8b/L	4r	.	.
.	8cc/J	.	.	.
=144	=144	=144	=144	=144
8d 8B\	4dd/	8g\	.	.
8r	.	8r	.	.
4r	8ee/L	4r	.	.
.	8ff#/J	.	.	.
=145	=145	=145	=145	=145
*ped	*	*	*	*
!	!LO:TX:i:a:t=a tempo	!	!	!
8AA 8AAA/	(2aa/	16eeLL 16cc#X\	.	ff
.	.	16a\	.	.
8C#X\L	.	16ee 16cc#\	.	.
.	.	16a\JJ	.	.
8E\	.	16eeLL 16cc#\	.	.
.	.	16a\	.	.
8A\J	.	16ee 16cc#\	.	.
.	.	16a\JJ	.	.
!!LO:LB:g=original
=146	=146	=146	=146	=146
8C#X/L	4gg/	16cc#X\LL	.	.
.	.	16g\	.	.
8E/	.	16cc#\	.	.
.	.	16g\JJ	.	.
8C#/	4ee/)	16a\LL	.	.
.	.	16g\	.	.
8AA/J	.	16a\	.	.
*Xped	*	*	*	*
.	.	16g\JJ	.	.
=147	=147	=147	=147	=147
*^	*	*	*	*
2B/	[2D\	(4dd/	16g\LL	.	.
.	.	.	16d\	.	.
.	.	.	16g\	.	.
.	.	.	16d\JJ	.	.
.	.	8cc#X/L	16g\LL	.	.
.	.	.	16d\	.	.
.	.	8ee/J	16g\	.	.
.	.	.	16d\JJ	.	.
*v	*v	*	*	*	*
=148	=148	=148	=148	=148
4A 4D\]	4.dd/	16f#\LL	.	.
.	.	16a\	.	.
.	.	16f#\	.	.
.	.	16d\JJ	.	.
4D\	.	16f#\LL	.	.
.	.	16d\	.	.
.	8ccn/	16f#\	.	.
.	.	16d\JJ	.	.
*	*v	*v	*	*
=149	=149	=149	=149
(16GG\LL	8b 8g/)	.	p
16D\	.	.	.
16G\	(<16d/LL	.	.
16B\JJ	16g/JJ	.	.
8d\L)	8b\)	.	.
8dJ 8B 8G\	8b 8g'/	.	.
!!LO:LB:g=original
=150	=150	=150	=150
(16GG\LL	8ccL 8g 8d'/	.	.
16D\	.	.	.
16G\	8b 8g 8d'/	.	.
16B\JJ	.	.	.
8d\L)	8a#X 8g'/	.	.
8dJ 8B 8G'\	8bJ 8g'/	.	.
=151	=151	=151	=151
(16GG\LL	8dd 8f#/	.	.
16D\	.	.	.
16F#\	16anLL 16f# 16c'/	.	.
16A\JJ	16aJJ 16f# 16c'/	.	.
8d\L)	8aL 8f# 8c/	.	.
8dJ 8A 8D'\	8ddJ 8cc 8f#/	.	.
=152	=152	=152	=152
*	*^	*	*
(16GG\LL	8ee'/L	8ccL 8f#\	.	<
16D\	.	.	.	.
16F#\	8dd'/	8cc 8f#\	.	.
16A\JJ	.	.	.	.
8d\L)	8cc#X'/	8cc# 8f#\	.	.
8dJ 8A 8D'\	8dd'/J	8ccnJ 8f#\	.	.
*	*v	*v	*	*
=153	=153	=153	=153
(16GG\LL	8gg 8b 8g\	.	.
16D\	.	.	.
16F#\	16ddLL 16b 16g\	.	.
16B\JJ	16ddJJ 16b 16g\	.	.
8d\L)	8ddL 8b 8g\	.	.
8dJ 8B 8G 8D'\	8bbJ 8gg 8dd\	.	.
=154	=154	=154	=154
(16GG\LL	8cccL 8gg 8dd'\	.	.
16D\	.	.	.
16G\	8bb 8gg 8dd'\	.	.
16B\JJ	.	.	.
8d\L)	8aa#X 8gg 8dd'\	.	.
8dJ 8B 8G 8D'\	8bbJ 8gg 8dd'\	.	.
!!LO:LB:g=original
=155	=155	=155	=155
(16GG\LL	8ddd 8ff# 8dd\	.	.
16D\	.	.	.
16F#\	16aanLL 16ff# 16cc\	.	.
16A\JJ	16aaJJ 16ff# 16cc\	.	.
8d\)	8aa 8ff# 8cc\	.	.
*	*8va	*	*
8F# 8FF#/	8ddd 8aa 8dd/	.	.
=156	=156	=156	=156
8GL 8GG/	8eeeL 8aa 8ee\	.	.
8F# 8FF#/	8fff# 8ddd 8aa 8ff#\	.	.
8E 8EE/	8ggg 8ddd 8gg\	.	.
8DJ 8DD/	8aaaJ 8fff# 8ddd 8aa\	.	.
=157	=157	=157	=157
16G 16GG/	16bbbLL 16ggg 16ddd 16bb\	.	.
*clefG2	*	*	*
16d/LL	16ddd\	.	.
16g/	16ggg\	.	.
16b/JJ	16bbb\JJ	.	.
8dd\	8dddd\	.	.
*	*X8va	*	*
8r	8r	.	.
*clefF4	*	*	*
=158	=158	=158	=158
2r	4.dd\	.	.
.	8cc\	.	.
=159	=159	=159	=159
*	*^	*	*
!!LO:TX:B:a:t=più lento
2BB 2BBB/	(4b/	2g 2d\	.	.
.	4a/	.	.	.
=160	=160	=160	=160	=160
2G 2BB\	4g/	2d#X\	.	.
.	4f#/)	.	.	.
*	*v	*v	*	*
!!LO:LB:g=original
=161	=161	=161	=161
4G 4C\	(4f#/	.	.
4r	8e/)	.	.
.	8r	.	.
=162	=162	=162	=162
2r	(4.ff#\	.	f
.	8ee\)	.	.
=163	=163	=163	=163
*	*^	*	*
2G#X 2C\	(4dd/	2e\	.	.
.	4cc/	.	.	.
=164	=164	=164	=164	=164
2A 2C\	4b/	2e\	.	.
.	4a/)	.	.	.
*	*v	*v	*	*
=165	=165	=165	=165
[2c\	(2g (2e-X^>/	.	.
=166	=166	=166	=166
!	!LO:TX:i:a:t=a tempo	!	!
8c\]	8f# 8d/))	.	.
8r	8r	.	.
4r	8f#/L	.	.
.	8g/J	.	.
=167	=167	=167	=167
*	*^	*	*
8c\	4a 4f#/	8d\	.	<
8r	.	8r	.	.
4r	8b/L	4r	.	.
.	8cc/J	.	.	.
*	*v	*v	*	*
=168	=168	=168	=168
8B\	8ddL 8g 8d/	.	.
8r	8ee 8e/	.	.
4r	8ff# 8f#/	.	.
.	8ggJ 8g/	.	[[
!!LO:PB:g=original
=169	=169	=169	=169
*	*^	*	*
*ped	*	*	*	*
8BBL 8BBB/	2bb/	16ff#LL 16dd#X\	.	ff
.	.	16b\	.	.
8D#X/	.	16ff# 16dd#\	.	.
.	.	16b\JJ	.	.
8F#/	.	16ff#LL 16dd#\	.	.
.	.	16b\	.	.
8BJ 8BB/	.	16ff# 16dd#\	.	.
*Xped	*	*	*	*
.	.	16b\JJ	.	.
=170	=170	=170	=170	=170
8cL 8C\	4bb-X/	16ggLL 16ee\	.	.
.	.	16b-X\	.	.
8c 8C\	.	16gg 16ee\	.	.
.	.	16b-\JJ	.	.
8c#X 8C#X\	4aa/	16ggLL 16ee\	.	.
.	.	16a\	.	.
8c#J 8C#\	.	16ee\	.	.
.	.	16a\JJ	.	.
*	*v	*v	*	*
=171	=171	=171	=171
8d 8D\	4gg 4dd 4bn 4g\	.	.
8d\L	.	.	.
8B\	8dd\L	.	.
8G\J	8ee\J	.	.
=172	=172	=172	=172
*	*^	*	*
8D\	(4ff#/	8cc 8a\	.	.
8r	.	8r	.	.
.	16qqgg/LL	.	.	.
.	16qqff#/JJ	.	.	.
8D 8DD/	8ee/L	8cc 8f#\	.	.
8r	8dd/J)	8r	.	.
!!LO:LB:g=original
=173	=173	=173	=173	=173
*ped	*	*	*	*
16GG/LL	8gg/	8b 8g\	.	.
16D/	.	.	.	.
16GG/	8r	8ryy	.	.
16D/JJ	.	.	.	.
16GG/LL	8gL 8B'/	4ryy	.	.
16D/	.	.	.	.
16GG/	16gL 16B'/	.	.	.
16D/JJ	16gJJ 16B'/	.	.	.
*	*v	*v	*	*
=174	=174	=174	=174
16GG/LL	8gL 8B'/	.	.
16D/	.	.	.
16GG/	8d 8B'/	.	.
16D/JJ	.	.	.
16GG/LL	8g 8B'/	.	.
16D/	.	.	.
16GG/	8dJ 8B'/	.	.
16D/JJ	.	.	.
=175	=175	=175	=175
16GG/LL	4g 4B'^^/	.	.
16D/	.	.	.
16GG/	.	.	.
16D/JJ	.	.	.
16GG/LL	8bL 8g'/	.	.
16D/	.	.	.
16GG/	16bL 16g'/	.	.
16D/JJ	16bJJ 16g'/	.	.
=176	=176	=176	=176
16GG/LL	8bL 8g'/	.	.
16D/	.	.	.
16GG/	8g 8d 8B'/	.	.
16D/JJ	.	.	.
16GG/LL	8b 8g 8d'/	.	.
16D/	.	.	.
16GG/	8gJ 8d 8B'/	.	.
16D/JJ	.	.	.
!!LO:LB:g=original
=177	=177	=177	=177
16GG/LL	4b 4g 4d^^/	.	.
16D/	.	.	.
16GG/	.	.	.
16D/JJ	.	.	.
16GG/LL	8ddL 8b 8g'/	.	.
16D/	.	.	.
16GG/	16ddL 16b 16g'/	.	.
16D/JJ	16ddJJ 16b 16g'/	.	.
=178	=178	=178	=178
16GG/LL	8ddL 8b 8g'/	.	.
16D/	.	.	.
16GG/	8b 8g 8d'/	.	.
16D/JJ	.	.	.
16GG/LL	8dd 8b 8g'/	.	.
16D/	.	.	.
16GG/	8bJ 8g 8d'/	.	.
16D/JJ	.	.	.
=179	=179	=179	=179
8GG/	4dd 4b 4g/	.	.
8dL 8B 8D\	.	.	.
.	8qg/	.	.
*	*8va	*	*
8d 8B 8G\	16ggg\LL	.	.
.	16fff#\	.	.
8dJ 8B 8D\	16eee\	.	.
.	16ddd\JJ	.	.
=180	=180	=180	=180
8dL 8B 8G\	16ccc#X\LL	.	.
.	16ddd\	.	.
8dJ 8B 8D\	16eee\	.	.
.	16ddd\JJ	.	.
8dL 8B 8G\	16cccn/LL	.	.
.	16bb/	.	.
8dJ 8B 8D\	16aa/	.	.
.	16gg/JJ	.	.
!!LO:LB:g=original
=181	=181	=181	=181
8dL 8c 8A\	(8gg/L	.	.
8dJ 8c 8D\	8ff#/J)	.	.
8dL 8c 8A\	16ff#/LL	.	.
.	16gg/	.	.
8dJ 8D\	16ff#/	.	.
.	16ee/JJ	.	.
=182	=182	=182	=182
8dL 8c 8A\	16ff#/LL	.	.
.	16gg/	.	.
8dJ 8D\	16aa/	.	.
.	16bb/JJ	.	.
8dL 8A 8F#\	16ccc\LL	.	.
.	16ddd\	.	.
8dJ 8A 8D\	16fff#\	.	.
.	16eee\JJ	.	.
=183	=183	=183	=183
8dL 8B 8G\	4ddd\	.	.
8dJ 8B 8D\	.	.	.
.	8qgg/	.	.
8dL 8B 8G\	16ggg^\LL	.	.
.	16fff#\	.	.
8dJ 8B 8D\	16eee\	.	.
.	16ddd\JJ	.	.
=184	=184	=184	=184
8dL 8B 8G\	16ccc#X\LL	.	.
.	16ddd\	.	.
8dJ 8B 8D\	16eee\	.	.
.	16ddd\JJ	.	.
8dL 8B 8G\	16cccn/LL	.	.
.	16bb/	.	.
8dJ 8B 8D\	16aa/	.	.
.	16gg/JJ	.	.
!!LO:LB:g=original
=185	=185	=185	=185
8dL 8c 8A\	8gg/L	.	.
8dJ 8D\	8ff#/J	.	.
.	8qgg/	.	.
8dL 8c 8A\	16ff#/LL	.	.
.	16gg/	.	.
8dJ 8D\	16ff#/	.	.
.	16ee/JJ	.	.
=186	=186	=186	=186
8dL 8A 8F# 8D\	16ff#/LL	.	.
.	16gg/	.	.
8d 8A 8F# 8D\	16aa/	.	.
.	16bb/JJ	.	.
8d 8A 8F# 8D\	16ccc\LL	.	.
.	16ddd\	.	.
8dJ 8A 8F# 8D\	16eee\	.	.
.	16fff#\JJ	.	.
=187	=187	=187	=187
8G 8GG/	8ggg 8ddd 8bb\	.	.
*	*X8va	*	*
8r	8r	.	.
8G 8GG/	8ddd 8bb 8gg 8dd\	.	ff
8r	8r	.	.
=188	=188	=188	=188
8G 8GG/	8bb 8gg 8dd 8b\	.	.
8r	8r	.	.
8G 8GG/	8ddd 8bb 8gg 8dd\	.	.
8r	8r	.	.
=189	=189	=189	=189
8GG 8GGG/	8ggg 8ddd 8bb 8gg\	.	.
8r	8r	.	.
4r	4r	.	.
==	==	==	==
*-	*-	*-	*-
!!!system-decoration: {(p1)}
!!!RDF**kern: > = above
!!!RDF**kern: < = below
!!!ENC: Berenika Jozajtis
!!!END: 2022-08-23
!!!ENC: Kamil Watkowski
!!!END: 2022-09-29
